svgs/sharp-solid/object-intersect.svg

<svg xmlns="http://www.w3.org/2000/svg" viewBox="0 0 512 512"><!--! Font Awesome Pro 6.6.0 by @fontawesome - https://fontawesome.com License - https://fontawesome.com/license (Commercial License) Copyright 2024 Fonticons, Inc. --><path d="M288 64l0 96-64 0-64 0 0 64 0 64-96 0L64 64l224 0zM64 352l96 0 0 96 0 64 64 0 224 0 64 0 0-64 0-224 0-64-64 0-96 0 0-96 0-64L288 0 64 0 0 0 0 64 0 288l0 64 64 0zM448 224l0 224-224 0 0-96 64 0 64 0 0-64 0-64 96 0z"/></svg>

<svg xmlns="http://www.w3.org/2000/svg" viewBox="0 0 512 512"><!--! Font Awesome Pro 6.4.2 by @fontawesome - https://fontawesome.com License - https://fontawesome.com/license (Commercial License) Copyright 2023 Fonticons, Inc. --><path d="M288 64v96H224 160v64 64H64V64H288zM64 352h96v96 64h64H448h64V448 224 160H448 352V64 0H288 64 0V64 288v64H64zM448 224V448H224V352h64 64V288 224h96z"/></svg>
